assets/images/logo.svg

<svg width="154" height="35" viewBox="0 0 154 35" fill="none" xmlns="http://www.w3.org/2000/svg">
<path d="M4.88281 18.2275V35H0V0.820312H5.22461L10.9863 22.1094L16.748 0.820312H21.9727V35H17.0898V18.2275L12.5488 35H9.42383L4.88281 18.2275ZM34.1797 20.8398V35H29.2969V20.8398L23.6816 0.820312H28.7354L31.7383 11.5137L34.7412 0.820312H39.7949L34.1797 20.8398ZM56.1523 8.14453V10.5859H51.2695V8.14453C51.2695 7.47721 51.0254 6.90755 50.5371 6.43555C50.0651 5.94727 49.4954 5.70312 48.8281 5.70312C48.1608 5.70312 47.583 5.94727 47.0947 6.43555C46.6227 6.90755 46.3867 7.47721 46.3867 8.14453C46.3867 11.5625 48.0143 14.4922 51.2695 16.9336C54.5247 19.375 56.1523 22.9557 56.1523 27.6758C56.1523 29.694 55.4362 31.4193 54.0039 32.8516C52.5716 34.2839 50.8464 35 48.8281 35C46.8099 35 45.0846 34.2839 43.6523 32.8516C42.2201 31.4193 41.5039 29.694 41.5039 27.6758V25.2344H46.3867V27.6758C46.3867 28.3431 46.6227 28.9209 47.0947 29.4092C47.583 29.8812 48.1608 30.1172 48.8281 30.1172C49.4954 30.1172 50.0651 29.8812 50.5371 29.4092C51.0254 28.9209 51.2695 28.3431 51.2695 27.6758C51.2695 24.2578 49.6419 21.3281 46.3867 18.8867C43.1315 16.4453 41.5039 12.8646 41.5039 8.14453C41.5039 6.1263 42.2201 4.40104 43.6523 2.96875C45.0846 1.53646 46.8099 0.820312 48.8281 0.820312C50.8464 0.820312 52.5716 1.53646 54.0039 2.96875C55.4362 4.40104 56.1523 6.1263 56.1523 8.14453ZM68.3594 5.70312V35H63.4766V5.70312H58.5938V0.820312H73.2422V5.70312H68.3594ZM90.1367 30.1172H85.6689L85.0098 35H80.0781L84.6924 0.820312H91.1133L95.7031 35H90.7959L90.1367 30.1172ZM86.3281 25.2344H89.4775L87.8906 13.5156L86.3281 25.2344ZM97.6562 27.6758V0.820312H102.539V27.6758C102.539 28.3431 102.775 28.9209 103.247 29.4092C103.735 29.8812 104.313 30.1172 104.98 30.1172C105.648 30.1172 106.217 29.8812 106.689 29.4092C107.178 28.9209 107.422 28.3431 107.422 27.6758V0.820312H112.305V27.6758C112.305 29.694 111.589 31.4193 110.156 32.8516C108.724 34.2839 106.999 35 104.98 35C102.962 35 101.237 34.2839 99.8047 32.8516C98.3724 31.4193 97.6562 29.694 97.6562 27.6758ZM124.512 8.14453C124.512 7.47721 124.268 6.90755 123.779 6.43555C123.307 5.94727 122.738 5.70312 122.07 5.70312H119.629V30.1172H122.07C122.738 30.1172 123.307 29.8812 123.779 29.4092C124.268 28.9209 124.512 28.3431 124.512 27.6758V8.14453ZM122.07 0.820312C124.089 0.820312 125.814 1.53646 127.246 2.96875C128.678 4.40104 129.395 6.1263 129.395 8.14453V27.6758C129.395 29.694 128.678 31.4193 127.246 32.8516C125.814 34.2839 124.089 35 122.07 35H114.746V0.820312H122.07ZM136.719 35H131.836V0.820312H136.719V35ZM139.16 8.14453C139.16 6.1263 139.876 4.40104 141.309 2.96875C142.741 1.53646 144.466 0.820312 146.484 0.820312C148.503 0.820312 150.228 1.53646 151.66 2.96875C153.092 4.40104 153.809 6.1263 153.809 8.14453V27.6758C153.809 29.694 153.092 31.4193 151.66 32.8516C150.228 34.2839 148.503 35 146.484 35C144.466 35 142.741 34.2839 141.309 32.8516C139.876 31.4193 139.16 29.694 139.16 27.6758V8.14453ZM148.926 8.14453C148.926 7.47721 148.682 6.90755 148.193 6.43555C147.721 5.94727 147.152 5.70312 146.484 5.70312C145.817 5.70312 145.239 5.94727 144.751 6.43555C144.279 6.90755 144.043 7.47721 144.043 8.14453V27.6758C144.043 28.3431 144.279 28.9209 144.751 29.4092C145.239 29.8812 145.817 30.1172 146.484 30.1172C147.152 30.1172 147.721 29.8812 148.193 29.4092C148.682 28.9209 148.926 28.3431 148.926 27.6758V8.14453Z" fill="white"/>
</svg>

<svg width="154" height="35" fill="none" xmlns="http://www.w3.org/2000/svg"><path d="M4.883 18.227V35H0V.82h5.225l5.761 21.29L16.748.82h5.225V35H17.09V18.227L12.549 35H9.424L4.883 18.227zM34.18 20.84V35h-4.883V20.84L23.682.82h5.053l3.003 10.694L34.741.82h5.054L34.18 20.84zM56.152 8.145v2.44H51.27v-2.44a2.29 2.29 0 00-.732-1.71 2.29 2.29 0 00-1.709-.732c-.667 0-1.245.244-1.733.733a2.329 2.329 0 00-.708 1.709c0 3.418 1.627 6.347 4.883 8.789 3.255 2.441 4.882 6.022 4.882 10.742 0 2.018-.716 3.743-2.148 5.176C52.572 34.284 50.846 35 48.828 35s-3.743-.716-5.176-2.148c-1.432-1.433-2.148-3.158-2.148-5.176v-2.442h4.883v2.442c0 .667.236 1.245.708 1.733a2.41 2.41 0 001.733.708c.667 0 1.237-.236 1.71-.708.487-.488.732-1.066.732-1.733 0-3.418-1.628-6.348-4.883-8.79-3.255-2.44-4.883-6.021-4.883-10.741 0-2.019.716-3.744 2.148-5.176C45.085 1.536 46.81.82 48.828.82c2.018 0 3.744.716 5.176 2.149 1.432 1.432 2.148 3.157 2.148 5.176zM68.36 5.703V35h-4.882V5.703h-4.883V.82h14.648v4.883H68.36zm21.778 24.414H85.67L85.009 35h-4.93L84.691.82h6.421L95.703 35h-4.907l-.66-4.883zm-3.809-4.883h3.15L87.89 13.516l-1.563 11.718zm11.328 2.442V.82h4.883v26.856c0 .667.236 1.245.708 1.733a2.41 2.41 0 001.733.708c.668 0 1.237-.236 1.709-.708.489-.488.733-1.066.733-1.733V.82h4.883v26.856c0 2.018-.716 3.743-2.149 5.176C108.725 34.284 107 35 104.981 35c-2.018 0-3.743-.716-5.175-2.148-1.433-1.433-2.149-3.158-2.149-5.176zm26.856-19.531c0-.668-.244-1.237-.733-1.71a2.29 2.29 0 00-1.709-.732h-2.441v24.414h2.441c.668 0 1.237-.236 1.709-.708.489-.488.733-1.066.733-1.733V8.145zM122.07.82c2.019 0 3.744.716 5.176 2.149 1.432 1.432 2.149 3.157 2.149 5.176v19.53c0 2.019-.717 3.744-2.149 5.177-1.432 1.432-3.157 2.148-5.176 2.148h-7.324V.82h7.324zM136.719 35h-4.883V.82h4.883V35zm2.441-26.855c0-2.019.716-3.744 2.149-5.176 1.432-1.433 3.157-2.149 5.175-2.149 2.019 0 3.744.716 5.176 2.149 1.432 1.432 2.149 3.157 2.149 5.176v19.53c0 2.019-.717 3.744-2.149 5.177-1.432 1.432-3.157 2.148-5.176 2.148-2.018 0-3.743-.716-5.175-2.148-1.433-1.433-2.149-3.158-2.149-5.176V8.145zm9.766 0c0-.668-.244-1.237-.733-1.71a2.29 2.29 0 00-1.709-.732c-.667 0-1.245.244-1.733.733a2.329 2.329 0 00-.708 1.709v19.53c0 .668.236 1.246.708 1.734a2.41 2.41 0 001.733.708c.668 0 1.237-.236 1.709-.708.489-.488.733-1.066.733-1.733V8.145z" fill="#fff"/></svg>
